icon-registry/icons-static/technology-git-commit_x16.svg

<svg fill="none" viewBox="0 0 16 16" xmlns="http://www.w3.org/2000/svg">
  <path d="m11 8c0 1.65685-1.34315 3-3 3s-3-1.34315-3-3 1.34315-3 3-3 3 1.34315 3 3z" fill="currentColor" class="icon-light" />
  <path d="m11 8c0 1.65685-1.34315 3-3 3s-3-1.34315-3-3m6 0c0-1.65685-1.34315-3-3-3s-3 1.34315-3 3m6 0h3m-9 0h-3" stroke="currentColor" strokeLinecap="round" strokeLinejoin="round" strokeWidth="2" class="icon-dark" />
</svg>

<svg viewBox="0 0 16 16" fill="none" xmlns="http://www.w3.org/2000/svg">
  <path d="M11 8C11 9.65685 9.65685 11 8 11C6.34315 11 5 9.65685 5 8C5 6.34315 6.34315 5 8 5C9.65685 5 11 6.34315 11 8Z" fill="currentColor" class="icon-light" />
  <path d="M11 8C11 9.65685 9.65685 11 8 11C6.34315 11 5 9.65685 5 8M11 8C11 6.34315 9.65685 5 8 5C6.34315 5 5 6.34315 5 8M11 8H14M5 8H2" stroke="currentColor" stroke-width="2" stroke-linecap="round" stroke-linejoin="round" class="icon-dark" />
</svg>
